X:575
T: Yigengen zhudan liangtoujian
N: C1996
O: China, Fujian Chongan
S: II, 572]
R: Shange, Daohua shange]
M: 2/4
L: 1/16
K: Bb
B2BBc2cc | B3GB2BG | F2B2G2BG | F3DF4
F2BBG2BG | GBBDF3F | F2B2G2BG | F2F2F4
B2BGB2BG | B3GB2BG | F2B2G2BG | F3DF4
F2BBG2B2 | GBBDF2z2 | F2B2G2BG | F2F2F4

